!!!!SEGMENT: pl-wtm--r-2519--010_hertz-michal--kanon.krn
!!!cenid: 18xx:3093
!!!COM: Hertz, Michał
!!!COM-rismID: pe41023359
!!!CDT: 1844/09/28-~1918
!!!CNT: Polish
!!!OTL: Kanon [10]
!!!PDT:
!!!AGN:
!!!SMS-siglum: PL-Wtm
!!!SMS-shelfmark: R 2519
!!!SMS-shelfwork: 010 W
!!!SMS-variant:
!!!SMS-altvar:
!!!NIFC-rismSourceID: 1001082119
!!!NIFC-islandoraID:
!!!URL-pdf-islandora:
!!!URL-scan:
!!!ONB-nifc: UWAGA: 9 Kanonów num. 001-009. Skan 0014-0015 (od ostatniego systemu na 0014)
!!!AIN: 1 empty
!!!key:
**kern	**kern
*part1	*part1
*staff2	*staff1
*Iempty	*Iempty
*I"	*I"
*clefF4	*clefG2
*k[]	*k[]
*C:	*C:
*M2/4	*M2/4
*>[A,B,B1,B,B2,C,D,D1,D,D2,E]	*>[A,B,B1,B,B2,C,D,D1,D,D2,E]
*2\right	*2\right
=1	=1
*>A	*>A
!	!LO:TX:t=P:problem=dolne caudy-większość z prawej
8r	2r
8C/	.
[>4c\	.
=2!|:	=2!|:
*>B	*>B
8c\L]	8r
16B\L	8f/
16c\JJ	.
16d\LL	[4ff\
16c\	.
16B\	.
16A\JJ	.
=3	=3
8G\L	8ff\L]
8G\J	16ee\L
.	16ff\JJ
[4E\	16gg\LL
.	16ff\
.	16ee\
.	16dd\JJ
=4	=4
8E\L]	8cc/L
16A\L	8cc/J
16G\JJ	.
!LO:TX:t=P:problem=# above	!
16F#X\LL	[4a/
16E\	.
16D\	.
16C\JJ	.
=5	=5
8D\L	8a/L]
8F#X\	16dd/L
.	16cc/JJ
8G\	16b/LL
.	16a/
8D\J	16g/
.	16f#X/JJ
=6	=6
16BB/LL	8g/L
16AA/	.
16GG/	8b/
16FF#X/JJ	.
16GG/LL	8cc/
16AA/	.
16BB/	8g/J
16C/JJ	.
=7	=7
8.C\L	16e/LL
.	16d/
.	16c/
16D\Jk	16B/JJ
8.E\L	16c/LL
.	16d/
.	16e/
16D\Jk	16f#X/JJ
=8	=8
8D\L	8.f#X/L
16C\L	.
16BB\JJ	16g/Jk
8D\L	8.a/L
8D\J	.
.	16g/Jk
!!pagebreak:original
=9	=9
*>B1	*>B1
!	!LO:TX:a:t=          I
8r	16g/LL
.	16f/J
8C\	8e/J
4c\	8g/L
.	8g/J
=10:|!	=10:|!
*>B2	*B2
!	!LO:TX:a:t=      II
16G\LL	16g/LL
16A\	16f/J
16G\	8e/J
16Fn\JJ	.
16E\LL	8g/L
16F\	.
16E\	8g/J
16D\JJ	.
=11	=11
*>C	*>C
8E\L	16c/LL
.	16d/
8E\J	16c/
.	16B/JJ
4C/	16A/LL
.	16B/
.	16A/
.	16G/JJ
=12	=12
16C\LL	8A<\L
16D\	.
16C\	8A</J
16BB\JJ	.
16AA\LL	4F</
16BB\	.
16AA\	.
16GG\JJ	.
=13	=13
8AA\L	16F</LL
.	16G</
8AA\J	16F</
.	16E</JJ
4F\	16D</LL
.	16E</
.	16D</
.	16C</JJ
=14	=14
8F\L	8D</L
16B\L	8D</J
16A\JJ	.
16G\LL	4B</
16F\	.
16E\	.
16D\JJ	.
=15	=15
16E\LL	8B/L
16D\J	.
8C\J	16e/L
.	16d/JJ
16A\LL	16c/LL
16G\	16B/
16F\	16A/
16E\JJ	16G/JJ
=16	=16
!!linebreak:original
16D\LL	8A/L
16E\J	.
8D\J	16G/L
.	16F/JJ
8G\L	16B/LL
.	16c/
8G\J	16B/
.	16A/JJ
=17||	=17||
8r	16G/LL
.	16A/J
8C\	8G/J
4c\	8c/L
.	8c/J
=18	=18
8c\L	8r
16B\L	8f/
16c\JJ	.
16d\LL	4ff\
16c\	.
16B\	.
16A\JJ	.
=19	=19
8G\L	8ff\L
8G\J	16ee\L
.	16ff\JJ
[4E\	16gg\LL
.	16ff\
.	16ee\
.	16dd\JJ
=20	=20
8E\L]	8cc\L
16A\L	8cc\J
16G\JJ	.
16F\LL	4a/
16E\	.
16D\	.
16C\JJ	.
=21	=21
8D\L	8a\L
8F\	16dd\L
.	16cc\JJ
8G\	16b\LL
.	16a\
8D\J	16g\
.	16f\JJ
=22	=22
16BB\LL	8g\L
16AA\	.
16GG\	8b\
16FF\JJ	.
16GG\LL	8cc\
16AA\	.
16BB\	8g\J
16C\JJ	.
=23	=23
!!linebreak:original
8.C\L	16e/LL
.	16d/
.	16c/
16D\Jk	16B/JJ
8.E\L	16c/LL
.	16d/
.	16e/
16D\Jk	16f/JJ
=24	=24
16D\LL	8.f/L
16C\J	.
8BB\J	.
.	16g/Jk
8C\L	8.a/L
8BB\J	.
.	16g/Jk
=25||	=25||
8C\L	16g/LL
.	16f/J
8C\J	8e/J
4d\	8f/L
.	8e/J
=26	=26
8c\L	16e/LL
.	16f/
!	!LO:TX:a:t=anhang
16B\L	16g/
16c\JJ	16a/JJ
8f\L	16dd\LL
.	16ee\
8f\J	16dd\
.	16cc\JJ
=27	=27
8g\L	16b\LL
.	16cc\
8G\J	16dd\
.	16ee\JJ
8r	8ee\L
8G\	8dd\J
=28	=28
8c\L	16ee\LL
.	16dd\
8C\J	16cc\
.	16b\JJ
4r	8cc\L
.	8c\J
=29||	=29||
!!pagebreak:original
*M3/4	*M3/4
(4r	2.r
<4G\	.
[4c\	.
=30	=30
4c\]	2.r
8B\L	.
8c\J	.
4d\)	.
=31!|:	=31!|:
*>D	*>D
(<4c\	4r
4B\	4c/
4A\	4f/
=32	=32
8B\L	4f/
8A\	.
8G\	8e/L
8F\	8f/J
8E\	4g/
8D\J)	.
=33	=33
(<4r	4f/
4C\	4e/
[4F\	4d/
=34	=34
4F\]	8e/L
.	8d/
8E\L	8c/
8F\J	8B/
4G\)	8A/
.	8G/J
=35	=35
(<4F\	4r
4E\	4F/
4D\	4B/
=36	=36
8E\L	4B/
8D\	.
8C\	8A/L
8BB\	8B/J
8AA\	4c/
8GG\J)	.
=37	=37
!!linebreak:original
(<8r	4B/
8GG/	.
4AA/	4A/
4BB/	4G/
=38	=38
8C\L	8A/L
8BB\	8G/
8D\	8F#X/
8C\	8E/
8BB\	8D/
8AA\J)	8C/J
=39	=39
(<8F#X\L	8r
8E\	8c/
8G\	4d/
8F#\	.
8E\	4e\
8D\J	.
=40	=40
8D\L	8f#X\L
8C\J	8e\
4BB\	8g\
.	8f#\
8C\L	8e\
8D\J)	8d\J
=41	=41
(<8G\L	8b\L
8F#X\J	8a\
4E\	8cc\
.	8b\
8F#\L	8a\
8G\J	8g\J
=42	=42
8E\L	8g/L
8D\	8f#X/J
8C\	4e/
8BB\	.
8AA\	8f#/L
8BB\J)	8g/J
=43	=43
(<4G\	8cc\L
.	8b\J
4.Fn\	4a\
.	8b\L
8E\	8cc\J
=44	=44
8D\L	8a\L
8E\J	8g\
4D\	8f\
.	8e\
8Fn\L)	8d\
8G\J	8e\J
=45||	=45||
!!linebreak:original
*>D1	*>D1
4r	4cc\
4G\	4.b\
[4c\	.
!	!LO:TX:a:t=     I
.	8a\
=46	=46
4c\]	8g\L
.	8a\J
8B\L	4g\
8c\J	.
4d\	8b\L
.	8cc\J
=47:|!	=47:|!
*>D2	*>D2
(<8E\L	4cc\
8F\	.
8G\	4.b\
8A\	.
8B\	.
!	!LO:TX:a:t=     II
8c\J	8a\
=48	=48
8B\L	8g\L
8A\	8a\J
8B\	4g\
8c\	.
8d\	8b\L
8e\J)	8cc\J
=49	=49
*>E	*>E
(<4f\	8a\L
.	8b\
4.e\	8cc\
.	8dd\
.	8ee\
8A\	8ff\J
=50	=50
4c\	8ee\L
.	8dd\
4c\	8ee\
.	8ff\
4B\)	8gg\
.	8aa\J
=51	=51
(<8d\L	4bb\
8e\	.
8f\	4.aa\
8d\	.
8c\	.
8B\J	8dd\
=52	=52
8d\L	4ff\
8c\	.
8B\	4ff\
8A\	.
8G\	4ee\
8F\J)	.
=53	=53
!!pagebreak:original
*	*8va
(<4E\	8gg/L
.	8aa/
4.G\	8bb/
.	8gg/
.	8ff/
8A\	8ee/J
*	*X8va
!	!LO:TX:a:t=va:rj
=54	=54
4B\	8gg\L
.	8ff\
4c\	8ee\
.	8dd\
4A\)	8cc\
.	8b\J
=55	=55
(<8F\L	4a/
8G\J	.
4A\	4cc\
8B\L	4dd\
8A\J	.
=56	=56
2G\	4ee\
.	4ff\
4F\)	4dd\
=57	=57
(<4G\	8b\L
.	8cc\J
4F\	4dd\
8E\L	8ee\L
8F\J	8dd\J
=58	=58
8E\L	2cc\
8D\J	.
4C\	.
4D\)	4b\
=59	=59
8E\L	4cc\
8F\J	.
4G\	4b\
8F\L	8a\L
8G\J	8b\J
=60	=60
!!linebreak:original
8F\L	8a/L
8E\	8g/J
8D\	4f/
8C\	.
8BB\	4g/
8AA\J	.
=61	=61
(<8F\L	8a\L
8G\J	8b\J
4A\	4cc\
4E\	8b\L
.	8cc\J
=62	=62
2D\	8b\L
.	8a\
.	8g\
.	8f\
4C\)	8e\
.	8d\J
=63||	=63||
(4r	8b\L
.	8cc\J
4G\	4dd\
[4c\	4a/
=64	=64
4c\]	2g/
8B\L	.
8c\J	.
4d\)	4f/
=65	=65
(<4c\	4r
4B\	4c/
4A\	[4f/
=66	=66
8B\L	4f/]
8A\	.
8G\	8e/L
8F\	8f/J
8E\	4g/
8D\J)	.
=67	=67
!!linebreak:original
(4r	4f/
4C\	4e/
[4F\	4d/
=68	=68
4F\]	8e/L
.	8d/
8E\L	8c/
8F\J	8B/
4G\)	8A/
.	8G/J
=69	=69
(<4F\	4r
4E\	4F/
4D\	4B/
=70	=70
8E\L	4B/
8D\	.
8C\	8A/L
8BB\	8B/J
8AA\	4c/
8GG\J)	.
=71	=71
(<8r	4B</
8GG/	.
4AA/	4A</
4BB/	4G</
=72	=72
8C\L	8A</L
8BB\	8G</
8D\	8F</
8C\	8E</
8BB\	8D</
8AA\J)	8C</J
=73	=73
(<8F\L	8r
8E\	8c/
8G\	4d/
8F\	.
8E\	4e/
8D\J	.
=74	=74
8D\L	8f/L
8C\J	8e/
4BB\	8g/
.	8f/
8C\L	8e/
8D\J)	8d/J
=75	=75
(<8G\L	8b\L
8F\J	8a\
4E\	8cc\
.	8b\
8F\L	8a\
8G\J	8g\J
=76	=76
8E\L	8g\L
8D\	8f\J
8C\	4e\
8BB\	.
8AA\	8f\L
8BB\J)	8g\J
=77	=77
!	!LO:TX:a:t=frei
8r	4a\
8C\	.
2GG/	8b\L
.	8cc\
.	8dd\
.	8ee\J
=78	=78
2.C;<\	2.cc;\
==	==
*-	*-
!!!system-decoration: [(s1,s2)]
!!!RDF**kern: > = above
!!!RDF**kern: < = below
!!!ENC: Anastazja Marusiak
!!!END: 2021-10-26
